X: 36
T: No_133_Dream_Song.krn
%%abc-version 2.0
%%abcx-abcm2ps-target-version 5.9.1 (29 Sep 2008)
%%abc-creator hum2abc beta
%%abcx-conversion-date 2020/08/10 18:54:57
%%gracespace 0 6 6
%%humdrum-veritas 464664655
%%humdrum-veritas-data 2350405326
%%linebreak <none>
%%barnumbers 0
L: 1/8
M: 3/4
%%staves {1 2}
V: 1 clef=treble
V: 2 clef=bass
K: B
[V:1] [K:clef=treble][M:3/4]F2>G2 FD ||  
[V:2] [K:clef=bass][M:3/4](3!accent!G,, z G,, (3!accent!G,, z G,, (3!accent!G,, z G,, ||  
[V:1] [M:2/4]F2D/D3/- | 
[V:2] [M:2/4]z4 | 
[V:1] D4 ||  
[V:2] z4 ||  
[V:1] [M:3/4]D<DD2DF ||  
[V:2] [M:3/4]z6 ||  
[V:1] [M:2/4]FD FD | 
[V:2] [M:2/4]z4 | 
[V:1] FB,B,2[K:clef=bass] | 
[V:2] z4 | 
[V:1] G,B,B,2 | 
[V:2] z4 | 
[V:1] G,B, B,G, | 
[V:2] z4 | 
[V:1] F,F,F,2- | 
[V:2] z4 | 
[V:1] F,4 | 
[V:2] z4 | 
[V:1] B,2B,3/G,/ | 
[V:2] z4 | 
[V:1] F,2F,G, ||  
[V:2] z4 ||  
[V:1] [M:3/4]F,2D,D, D,D, ||  
[V:2] [M:3/4]z6 ||  
[V:1] [M:2/4]D,4[K:clef=treble] ||  
[V:2] [M:2/4]z4 ||  
[V:1] DDD2 | 
[V:2] z4 | 
[V:1] DF FD ||  
[V:2] z4 ||  
[V:1] [M:3/4]FD FB,B,2[K:clef=bass] ||  
[V:2] [M:3/4]z6 ||  
[V:1] [K:clef=bass][M:2/4]G,B,B,2 | 
[V:2] [M:2/4]z4 | 
[V:1] G,B, B,G, | 
[V:2] z4 | 
[V:1] F,F,F,2- | 
[V:2] z4 | 
[V:1] F,4 | 
[V:2] z4 | 
[V:1] B,2B,3/G,/ | 
[V:2] z4 | 
[V:1] F,2F,G, ||  
[V:2] z4 ||  
[V:1] [M:3/4]F,2D,D, D,D, ||  
[V:2] [M:3/4]z6 ||  
[V:1] [M:2/4]D,4 |]  
[V:2] [M:2/4]z4 |]  


